Modules/BetterCms.Module.Root/Scss/assets/icons/editor-strike-active.svg

<svg height="14" width="13" xmlns="http://www.w3.org/2000/svg" viewBox="0 0 13 14"><path fill="#0d7ce7" fill-rule="evenodd" d="m3.05 7h-3.05v2h8.24c.38.31.49.67.49 1.13v.04c0 1.01-.89 1.71-2.29 1.71-1.58 0-2.84-.64-4.07-1.77l-1.37 1.71c1.55 1.46 3.41 2.18 5.39 2.18 2.71 0 4.61-1.52 4.61-4.06v-.04c0-.33-.03-.62-.09-.9h2.09v-2h-3.45c-.67-.46-1.56-.8-2.68-1.09-2.49-.62-3.08-1.09-3.08-2.14v-.04c0-.89.77-1.61 2.1-1.61 1.18 0 2.34.49 3.5 1.4l1.22-1.81c-1.31-1.11-2.8-1.71-4.68-1.71-2.57 0-4.41 1.61-4.41 3.95v.04c0 1.47.53 2.37 1.53 3.01"/></svg>

<?xml version="1.0" encoding="utf-8"?>
<!-- Generator: Avocode 2.4.5 - http://avocode.com -->
<svg height="14" width="13" xmlns:xlink="http://www.w3.org/1999/xlink" xmlns="http://www.w3.org/2000/svg" viewBox="0 0 13 14">
    <path fill="#0d7ce7" fill-rule="evenodd" d="M 3.05 7 L 0 7 L 0 9 L 8.24 9 C 8.62 9.31 8.73 9.67 8.73 10.13 L 8.73 10.17 C 8.73 11.18 7.84 11.88 6.44 11.88 C 4.86 11.88 3.6 11.24 2.37 10.11 L 1 11.82 C 2.55 13.28 4.41 14 6.39 14 C 9.1 14 11 12.48 11 9.94 L 11 9.9 C 11 9.57 10.97 9.28 10.91 9 L 13 9 L 13 7 L 9.55 7 C 8.88 6.54 7.99 6.2 6.87 5.91 C 4.38 5.29 3.79 4.82 3.79 3.77 L 3.79 3.73 C 3.79 2.84 4.56 2.12 5.89 2.12 C 7.07 2.12 8.23 2.61 9.39 3.52 L 10.61 1.71 C 9.3 0.6 7.81 0 5.93 0 C 3.36 0 1.52 1.61 1.52 3.95 L 1.52 3.99 C 1.52 5.46 2.05 6.36 3.05 7 Z M 3.05 7" />
</svg>
